icons/circle/48/qupzilla.svg

<svg version="1.1" viewBox="0 0 48 48" xmlns="http://www.w3.org/2000/svg">
 <defs>
  <linearGradient id="linearGradient3764" x1="1" x2="47" gradientTransform="matrix(0 -1 1 0 -1.5e-6 48)" gradientUnits="userSpaceOnUse">
   <stop style="stop-color:#165fb2" offset="0"/>
   <stop style="stop-color:#1869c4" offset="1"/>
  </linearGradient>
 </defs>
 <path d="m36.31 5c5.859 4.062 9.688 10.831 9.688 18.5 0 12.426-10.07 22.5-22.5 22.5-7.669 0-14.438-3.828-18.5-9.688 1.037 1.822 2.306 3.499 3.781 4.969 4.085 3.712 9.514 5.969 15.469 5.969 12.703 0 23-10.298 23-23 0-5.954-2.256-11.384-5.969-15.469-1.469-1.475-3.147-2.744-4.969-3.781zm4.969 3.781c3.854 4.113 6.219 9.637 6.219 15.719 0 12.703-10.297 23-23 23-6.081 0-11.606-2.364-15.719-6.219 4.16 4.144 9.883 6.719 16.219 6.719 12.703 0 23-10.298 23-23 0-6.335-2.575-12.06-6.719-16.219z" style="opacity:.05"/>
 <path d="m41.28 8.781c3.712 4.085 5.969 9.514 5.969 15.469 0 12.703-10.297 23-23 23-5.954 0-11.384-2.256-15.469-5.969 4.113 3.854 9.637 6.219 15.719 6.219 12.703 0 23-10.298 23-23 0-6.081-2.364-11.606-6.219-15.719z" style="opacity:.1"/>
 <path d="m31.25 2.375c8.615 3.154 14.75 11.417 14.75 21.13 0 12.426-10.07 22.5-22.5 22.5-9.708 0-17.971-6.135-21.12-14.75a23 23 0 0 0 44.875 -7 23 23 0 0 0 -16 -21.875z" style="opacity:.2"/>
 <path d="m24 1c12.703 0 23 10.297 23 23s-10.297 23-23 23-23-10.297-23-23 10.297-23 23-23z" style="fill:url(#linearGradient3764)"/>
 <path d="m40.03 7.531c3.712 4.084 5.969 9.514 5.969 15.469 0 12.703-10.297 23-23 23-5.954 0-11.384-2.256-15.469-5.969 4.178 4.291 10.01 6.969 16.469 6.969 12.703 0 23-10.298 23-23 0-6.462-2.677-12.291-6.969-16.469z" style="opacity:.1"/>
 <path d="m18.285 16.01c-2.05-0.08-4.053 0.308-5.977 1.408-1.154 1.124-2.309 4.173-2.309 7.604 0 5.622 2 7.996 2 7.996 15-8.489 13 4.983 28-0.5-5.189-0.843-11.03-6.662-18.258-7.249 6.325-3.155 11.912-2.749 15.258-2.551-6-2.025-12.563-6.47-18.715-6.709" style="fill-opacity:.098"/>
 <path d="m39 31.517c-15 5.483-13-7.989-28 0.5l2-6c11-6 19.08 4.376 26 5.5z" style="fill:#7ed1f3"/>
 <path d="m19.818 24.162c-2.1452 0.013528-4.4121 0.54297-6.8184 1.8555l-1.832 5.4961c0.048984 0.11281 0.099121 0.23467 0.14648 0.33398 1.2657-0.70109 2.4164-1.2521 3.457-1.6602 2.8965-2.6907 5.7522-4.472 8.4473-5.6094-1.1014-0.25594-2.2298-0.4234-3.4004-0.41602z" style="opacity:.1"/>
 <path d="m36 21.717c-5-0.297-15-1.1-25 10.3 0 0-2-2.374-2-7.996 0-3.431 1.154-6.479 2.308-7.604 7.692-4.4 16.692 2.6 24.692 5.3" style="fill:#f9f9f9"/>
</svg>

<svg viewBox="0 0 48 48" xmlns="http://www.w3.org/2000/svg">
  <defs>
    <linearGradient id="a" x1="1" x2="47" gradientTransform="rotate(-90 24 24)" gradientUnits="userSpaceOnUse">
      <stop offset="0" stop-color="#165fb2"/>
      <stop offset="1" stop-color="#1869c4"/>
    </linearGradient>
  </defs>
  <path d="M36.31 5c5.859 4.062 9.688 10.831 9.688 18.5 0 12.426-10.07 22.5-22.5 22.5-7.669 0-14.438-3.828-18.5-9.688a23.24 23.24 0 0 0 3.781 4.969 22.923 22.923 0 0 0 15.469 5.969c12.703 0 23-10.298 23-23a22.92 22.92 0 0 0-5.969-15.469A23.216 23.216 0 0 0 36.31 5zm4.969 3.781A22.911 22.911 0 0 1 47.498 24.5c0 12.703-10.297 23-23 23a22.909 22.909 0 0 1-15.719-6.219C12.939 45.425 18.662 48 24.998 48c12.703 0 23-10.298 23-23 0-6.335-2.575-12.06-6.719-16.219z" opacity=".05"/>
  <path d="M41.28 8.781a22.923 22.923 0 0 1 5.969 15.469c0 12.703-10.297 23-23 23A22.92 22.92 0 0 1 8.78 41.281 22.911 22.911 0 0 0 24.499 47.5c12.703 0 23-10.298 23-23A22.909 22.909 0 0 0 41.28 8.781z" opacity=".1"/>
  <path d="M31.25 2.375C39.865 5.529 46 13.792 46 23.505c0 12.426-10.07 22.5-22.5 22.5-9.708 0-17.971-6.135-21.12-14.75a23 23 0 0 0 44.875-7 23 23 0 0 0-16-21.875z" opacity=".2"/>
  <path d="M24 1c12.703 0 23 10.297 23 23S36.703 47 24 47 1 36.703 1 24 11.297 1 24 1z" fill="url(#a)"/>
  <path d="M40.03 7.531A22.922 22.922 0 0 1 45.999 23c0 12.703-10.297 23-23 23A22.92 22.92 0 0 1 7.53 40.031C11.708 44.322 17.54 47 23.999 47c12.703 0 23-10.298 23-23 0-6.462-2.677-12.291-6.969-16.469z" opacity=".1"/>
  <path d="M18.285 16.01c-2.05-.08-4.053.308-5.977 1.408-1.154 1.124-2.309 4.173-2.309 7.604 0 5.622 2 7.996 2 7.996 15-8.489 13 4.983 28-.5-5.189-.843-11.03-6.662-18.258-7.249 6.325-3.155 11.912-2.749 15.258-2.551-6-2.025-12.563-6.47-18.715-6.709" fill-opacity=".098"/>
  <path d="M39 31.517c-15 5.483-13-7.989-28 .5l2-6c11-6 19.08 4.376 26 5.5z" fill="#7ed1f3"/>
  <path d="M19.818 24.162c-2.145.014-4.412.543-6.818 1.855l-1.832 5.497c.049.112.099.234.146.334 1.266-.702 2.416-1.253 3.457-1.66 2.897-2.691 5.752-4.473 8.447-5.61-1.101-.256-2.23-.423-3.4-.416z" opacity=".1"/>
  <path d="M36 21.717c-5-.297-15-1.1-25 10.3 0 0-2-2.374-2-7.996 0-3.431 1.154-6.479 2.308-7.604C19 12.017 28 19.017 36 21.717" fill="#f9f9f9"/>
</svg>
